third_party/noto/noto_2/emoji_u1f6f0.svg

<svg enable-background="new 0 0 128 128" version="1.1" viewBox="0 0 128 128" xmlns="http://www.w3.org/2000/svg"><path d="m51.24 75.33s-47.26-17.71-47.24-18.08l1.12-33.65c0.02-0.45 0.47-0.75 0.89-0.59l46.35 17.12c0.38 0.14 0.62 0.51 0.61 0.91l-1.13 33.9c-0.01 0.3-0.31 0.5-0.6 0.39z" fill="#2F7889"/><path d="m9.29 59.89 41.95 15.44c0.28 0.11 0.59-0.09 0.6-0.4l1.13-33.9-7.57-2.85-36.11 21.71z" fill="#37474F"/><path d="m51.24 75.33-46.69-17.25c-0.34-0.13-0.56-0.46-0.55-0.82l1.12-33.66c0.02-0.45 0.47-0.75 0.89-0.59l46.35 17.12c0.38 0.14 0.62 0.51 0.61 0.91l-1.13 33.9c-0.01 0.3-0.31 0.5-0.6 0.39z" fill="none" stroke="#9DD4E0" stroke-miterlimit="10" stroke-width="2.0424"/><line x1="52.41" x2="4.57" y1="57.96" y2="40.27" fill="none" stroke="#9DD4E0" stroke-miterlimit="10" stroke-width="1.0212"/><line x1="29.54" x2="28.37" y1="32.71" y2="66.73" fill="none" stroke="#9DD4E0" stroke-miterlimit="10" stroke-width="1.0212"/><line x1="16.94" x2="15.88" y1="27.39" y2="62.59" fill="none" stroke="#9DD4E0" stroke-miterlimit="10" stroke-width="1.0212"/><line x1="42.02" x2="40.96" y1="35.95" y2="71.39" fill="none" stroke="#9DD4E0" stroke-miterlimit="10" stroke-width="1.0212"/><path d="m82.81 38.76 1.46-2.49c0.59-1.01 1.82-1.5 2.93-1.13 2.04 0.68 5.21 2.43 7.46 6.88 2.27 4.49 1.93 8.12 1.37 10.17-0.29 1.09-1.26 1.85-2.38 1.88l-2.04 0.04-8.8-15.35z" fill="#BF8904"/><path d="m91.15 40.25c-0.63 0.82 0.08 4.67-0.76 5.61-0.42 0.46-1.01 0.9-1.58 0.65l2.29 7.61 2.57-0.04c1.13-0.02 2.09-0.79 2.38-1.88 0.55-2.05 0.9-5.68-1.37-10.17-0.3-0.57-2.06-3.71-3.53-1.78z" fill="#875D00"/><polygon points="89.28 41.23 68.9 33.46 47.71 43.43 53.65 86 75.83 76.52 92.74 62.75" fill="#FFCA28"/><polygon points="89.28 41.22 67.95 51.14 53.85 86.39 76.03 76.91 92.94 63.14" fill="#E2A610"/><polygon points="67.99 51.25 47.62 43.48 30.71 57.24 34.17 78.77 54.54 86.53 71.45 72.77" fill="#BF8904"/><path d="m93.17 63.12-21.82 9.67-3.44 2.85c0.01-0.14 0.6-6.87-4.9-15.06-3.95-5.89-12.89-9.2-12.89-9.2l4.45 35.3 22.17-9.48 16.43-14.08z" fill="#875D00"/><path d="m122.27 105.01s-47.26-17.71-47.24-18.08l1.12-33.66c0.02-0.45 0.47-0.75 0.89-0.59l46.35 17.12c0.38 0.14 0.62 0.51 0.61 0.91l-1.13 33.9c-0.01 0.31-0.31 0.51-0.6 0.4z" fill="#2F7889"/><path d="m80.32 89.57 41.95 15.44c0.28 0.11 0.59-0.09 0.6-0.4l1.13-34.66-6.99-2.43-36.69 22.05z" fill="#37474F"/><path d="m122.27 105.01-46.69-17.25c-0.34-0.13-0.56-0.46-0.55-0.83l1.12-33.66c0.02-0.45 0.47-0.75 0.89-0.59l46.35 17.12c0.38 0.14 0.62 0.51 0.61 0.91l-1.13 33.9c-0.01 0.31-0.31 0.51-0.6 0.4z" fill="none" stroke="#9DD4E0" stroke-miterlimit="10" stroke-width="2.0424"/><line x1="123.44" x2="75.6" y1="87.63" y2="69.95" fill="none" stroke="#9DD4E0" stroke-miterlimit="10" stroke-width="1.0212"/><line x1="100.57" x2="99.4" y1="62.39" y2="96.41" fill="none" stroke="#9DD4E0" stroke-miterlimit="10" stroke-width="1.0212"/><line x1="87.97" x2="86.91" y1="57.06" y2="92.26" fill="none" stroke="#9DD4E0" stroke-miterlimit="10" stroke-width="1.0212"/><line x1="113.05" x2="111.99" y1="65.63" y2="101.07" fill="none" stroke="#9DD4E0" stroke-miterlimit="10" stroke-width="1.0212"/><path d="m75.03 39.47c0-1.57-2.67-2.85-5.96-2.85s-5.96 1.27-5.96 2.85v2.23c0 1.57 2.67 2.85 5.96 2.85s5.96-1.27 5.96-2.85v-2.23z" fill="#E2A610"/><ellipse cx="69.07" cy="39.47" rx="5.96" ry="2.85" fill="#E2A610"/><ellipse cx="69.07" cy="39.27" rx="5.01" ry="2.2" fill="#FFCA28"/><path d="m70.02 39.3s-0.19 0.4-0.94 0.4-0.94-0.4-0.94-0.4 0.27-10.28 0.35-10.95 1.02-0.65 1.05 0c0.02 0.65 0.48 10.95 0.48 10.95z" fill="#E2A610"/><path d="m75.03 39.47s-0.37 1.63-3.68 2.29c-2.43 0.48-4.17 0.29-4.59 1.56-0.32 0.96 1.98 1.75 5.23 0.87 2.93-0.8 3.04-2.26 3.04-2.48s0-2.24 0-2.24z" fill="#BF8904"/><path d="m53.94 92.43-17.32-45.94c7.54-2.84 21.56 3.62 26.34 16.3s-1.48 26.8-9.02 29.64z" fill="#9DD4E0"/><path d="m51.7 86.49 2.24 5.94c7.54-2.84 13.81-16.95 9.02-29.64-0.4-1.06-0.87-2.08-1.4-3.06 1.9 8.89-1.6 19.92-9.86 26.76z" fill="#2F7889"/><ellipse transform="matrix(.9357 -.3527 .3527 .9357 -21.628 20.424)" cx="45.23" cy="69.56" rx="13.25" ry="23.6" fill="#F5F5F5"/><path d="m37.04 68.06c-3.51-6.56-5.78-16.39-1.43-20.05 4.59-3.86 11.08 0.68 14.34 3.57 1.81 1.6 2.76 2.85 3.7 4.13 5.36 7.3 9.97 21.66 3.79 26.91-4.31 3.66-15.15-4.74-20.4-14.56z" fill="#BDBDBD"/><path d="m33.52 73.89c-4.31-11.44-2.57-23.13 3.81-25.53s15.4 5.23 19.71 16.67 2.57 23.13-3.81 25.53-15.4-5.23-19.71-16.67m-1.34 0.51c4.78 12.69 14.77 20.67 22.31 17.82 7.54-2.84 9.78-15.43 4.99-28.12s-14.77-20.66-22.31-17.82-9.77 15.43-4.99 28.12z" fill="#6392A5"/><line x1="26.72" x2="52.78" y1="76.3" y2="64.76" fill="none" stroke="#6392A5" stroke-linecap="round" stroke-miterlimit="10" stroke-width="1.5"/><line x1="26.72" x2="41.91" y1="76.3" y2="59.29" fill="none" stroke="#6392A5" stroke-linecap="round" stroke-miterlimit="10" stroke-width="1.5"/><line x1="26.72" x2="49.97" y1="76.3" y2="79.84" fill="none" stroke="#6392A5" stroke-linecap="round" stroke-miterlimit="10" stroke-width="1.5"/><path d="m28.4 74.49 0.79 2.08c0.17 0.44-0.06 0.94-0.5 1.1l-4.13 1.56c-0.44 0.17-0.94-0.06-1.1-0.5l-0.79-2.08c-0.17-0.44 0.06-0.94 0.5-1.1l4.13-1.55c0.44-0.17 0.93 0.05 1.1 0.49z" fill="#6392A5"/></svg>

<?xml version="1.0" encoding="utf-8"?>
<!-- Generator: Adobe Illustrator 25.2.3, SVG Export Plug-In . SVG Version: 6.00 Build 0)  -->
<svg version="1.1" id="Layer_4" xmlns="http://www.w3.org/2000/svg" xmlns:xlink="http://www.w3.org/1999/xlink" x="0px" y="0px"
	 viewBox="0 0 128 128" style="enable-background:new 0 0 128 128;" xml:space="preserve">
<g>
	<g>
		<path style="fill:#2F7889;" d="M51.24,75.33c0,0-47.26-17.71-47.24-18.08L5.12,23.6c0.02-0.45,0.47-0.75,0.89-0.59l46.35,17.12
			c0.38,0.14,0.62,0.51,0.61,0.91l-1.13,33.9C51.83,75.24,51.53,75.44,51.24,75.33z"/>
		<path style="fill:#37474F;" d="M9.29,59.89l41.95,15.44c0.28,0.11,0.59-0.09,0.6-0.4l1.13-33.9l-7.57-2.85L9.29,59.89z"/>
		<path style="fill:none;stroke:#9DD4E0;stroke-width:2.0424;stroke-miterlimit:10;" d="M51.24,75.33L4.55,58.08
			C4.21,57.95,3.99,57.62,4,57.26L5.12,23.6c0.02-0.45,0.47-0.75,0.89-0.59l46.35,17.12c0.38,0.14,0.62,0.51,0.61,0.91l-1.13,33.9
			C51.83,75.24,51.53,75.44,51.24,75.33z"/>
		<line style="fill:none;stroke:#9DD4E0;stroke-width:1.0212;stroke-miterlimit:10;" x1="52.41" y1="57.96" x2="4.57" y2="40.27"/>
		<line style="fill:none;stroke:#9DD4E0;stroke-width:1.0212;stroke-miterlimit:10;" x1="29.54" y1="32.71" x2="28.37" y2="66.73"/>
		<line style="fill:none;stroke:#9DD4E0;stroke-width:1.0212;stroke-miterlimit:10;" x1="16.94" y1="27.39" x2="15.88" y2="62.59"/>
		<line style="fill:none;stroke:#9DD4E0;stroke-width:1.0212;stroke-miterlimit:10;" x1="42.02" y1="35.95" x2="40.96" y2="71.39"/>
	</g>
	<path style="fill:#BF8904;" d="M82.81,38.76l1.46-2.49c0.59-1.01,1.82-1.5,2.93-1.13c2.04,0.68,5.21,2.43,7.46,6.88
		c2.27,4.49,1.93,8.12,1.37,10.17c-0.29,1.09-1.26,1.85-2.38,1.88l-2.04,0.04L82.81,38.76z"/>
	<path style="fill:#875D00;" d="M91.15,40.25c-0.63,0.82,0.08,4.67-0.76,5.61c-0.42,0.46-1.01,0.9-1.58,0.65l2.29,7.61l2.57-0.04
		c1.13-0.02,2.09-0.79,2.38-1.88c0.55-2.05,0.9-5.68-1.37-10.17C94.38,41.46,92.62,38.32,91.15,40.25z"/>
	<g>
		<polygon style="fill:#FFCA28;" points="89.28,41.23 68.9,33.46 47.71,43.43 53.65,86 75.83,76.52 92.74,62.75 		"/>
		<polygon style="fill:#E2A610;" points="89.28,41.22 67.95,51.14 53.85,86.39 76.03,76.91 92.94,63.14 		"/>
		<polygon style="fill:#BF8904;" points="67.99,51.25 47.62,43.48 30.71,57.24 34.17,78.77 54.54,86.53 71.45,72.77 		"/>
	</g>
	<path style="fill:#875D00;" d="M93.17,63.12l-21.82,9.67l-3.44,2.85c0.01-0.14,0.6-6.87-4.9-15.06c-3.95-5.89-12.89-9.2-12.89-9.2
		l4.45,35.3l22.17-9.48L93.17,63.12z"/>
	<g>
		<path style="fill:#2F7889;" d="M122.27,105.01c0,0-47.26-17.71-47.24-18.08l1.12-33.66c0.02-0.45,0.47-0.75,0.89-0.59l46.35,17.12
			c0.38,0.14,0.62,0.51,0.61,0.91l-1.13,33.9C122.86,104.92,122.56,105.12,122.27,105.01z"/>
		<path style="fill:#37474F;" d="M80.32,89.57l41.95,15.44c0.28,0.11,0.59-0.09,0.6-0.4L124,69.95l-6.99-2.43L80.32,89.57z"/>
		<path style="fill:none;stroke:#9DD4E0;stroke-width:2.0424;stroke-miterlimit:10;" d="M122.27,105.01L75.58,87.76
			c-0.34-0.13-0.56-0.46-0.55-0.83l1.12-33.66c0.02-0.45,0.47-0.75,0.89-0.59l46.35,17.12c0.38,0.14,0.62,0.51,0.61,0.91l-1.13,33.9
			C122.86,104.92,122.56,105.12,122.27,105.01z"/>
		<line style="fill:none;stroke:#9DD4E0;stroke-width:1.0212;stroke-miterlimit:10;" x1="123.44" y1="87.63" x2="75.6" y2="69.95"/>
		<line style="fill:none;stroke:#9DD4E0;stroke-width:1.0212;stroke-miterlimit:10;" x1="100.57" y1="62.39" x2="99.4" y2="96.41"/>
		<line style="fill:none;stroke:#9DD4E0;stroke-width:1.0212;stroke-miterlimit:10;" x1="87.97" y1="57.06" x2="86.91" y2="92.26"/>
		
			<line style="fill:none;stroke:#9DD4E0;stroke-width:1.0212;stroke-miterlimit:10;" x1="113.05" y1="65.63" x2="111.99" y2="101.07"/>
	</g>
	<path style="fill:#E2A610;" d="M75.03,39.47c0-1.57-2.67-2.85-5.96-2.85c-3.29,0-5.96,1.27-5.96,2.85c0,0.4,0,1.84,0,2.23
		c0,1.57,2.67,2.85,5.96,2.85c3.29,0,5.96-1.27,5.96-2.85C75.03,41.31,75.03,39.87,75.03,39.47z"/>
	<ellipse style="fill:#E2A610;" cx="69.07" cy="39.47" rx="5.96" ry="2.85"/>
	<ellipse style="fill:#FFCA28;" cx="69.07" cy="39.27" rx="5.01" ry="2.2"/>
	<path style="fill:#E2A610;" d="M70.02,39.3c0,0-0.19,0.4-0.94,0.4c-0.75,0-0.94-0.4-0.94-0.4s0.27-10.28,0.35-10.95
		c0.08-0.67,1.02-0.65,1.05,0C69.56,29,70.02,39.3,70.02,39.3z"/>
	<path style="fill:#BF8904;" d="M75.03,39.47c0,0-0.37,1.63-3.68,2.29c-2.43,0.48-4.17,0.29-4.59,1.56
		c-0.32,0.96,1.98,1.75,5.23,0.87c2.93-0.8,3.04-2.26,3.04-2.48S75.03,39.47,75.03,39.47z"/>
	<g>
		<path style="fill:#9DD4E0;" d="M53.94,92.43L36.62,46.49c7.54-2.84,21.56,3.62,26.34,16.3S61.48,89.59,53.94,92.43z"/>
		<path style="fill:#2F7889;" d="M51.7,86.49l2.24,5.94c7.54-2.84,13.81-16.95,9.02-29.64c-0.4-1.06-0.87-2.08-1.4-3.06
			C63.46,68.62,59.96,79.65,51.7,86.49z"/>
		
			<ellipse transform="matrix(0.9357 -0.3527 0.3527 0.9357 -21.628 20.4239)" style="fill:#F5F5F5;" cx="45.23" cy="69.56" rx="13.25" ry="23.6"/>
		<path style="fill:#BDBDBD;" d="M37.04,68.06c-3.51-6.56-5.78-16.39-1.43-20.05c4.59-3.86,11.08,0.68,14.34,3.57
			c1.81,1.6,2.76,2.85,3.7,4.13c5.36,7.3,9.97,21.66,3.79,26.91C53.13,86.28,42.29,77.88,37.04,68.06z"/>
		<path style="fill:#6392A5;" d="M33.52,73.89c-4.31-11.44-2.57-23.13,3.81-25.53s15.4,5.23,19.71,16.67s2.57,23.13-3.81,25.53
			S37.83,85.33,33.52,73.89 M32.18,74.4c4.78,12.69,14.77,20.67,22.31,17.82c7.54-2.84,9.78-15.43,4.99-28.12
			S44.71,43.44,37.17,46.28C29.63,49.12,27.4,61.71,32.18,74.4L32.18,74.4z"/>
		
			<line style="fill:none;stroke:#6392A5;stroke-width:1.5;stroke-linecap:round;stroke-miterlimit:10;" x1="26.72" y1="76.3" x2="52.78" y2="64.76"/>
		
			<line style="fill:none;stroke:#6392A5;stroke-width:1.5;stroke-linecap:round;stroke-miterlimit:10;" x1="26.72" y1="76.3" x2="41.91" y2="59.29"/>
		
			<line style="fill:none;stroke:#6392A5;stroke-width:1.5;stroke-linecap:round;stroke-miterlimit:10;" x1="26.72" y1="76.3" x2="49.97" y2="79.84"/>
		<path style="fill:#6392A5;" d="M28.4,74.49l0.79,2.08c0.17,0.44-0.06,0.94-0.5,1.1l-4.13,1.56c-0.44,0.17-0.94-0.06-1.1-0.5
			l-0.79-2.08c-0.17-0.44,0.06-0.94,0.5-1.1L27.3,74C27.74,73.83,28.23,74.05,28.4,74.49z"/>
	</g>
</g>
</svg>
